svg/color/orca.svg

<?xml version="1.0" encoding="UTF-8"?>
<svg xmlns="http://www.w3.org/2000/svg" xmlns:xlink="http://www.w3.org/1999/xlink" width="32px" height="32px" viewBox="0 0 32 32" version="1.1">
<g id="surface1">
<path style=" stroke:none;fill-rule:nonzero;fill:rgb(100%,81.960784%,36.078431%);fill-opacity:1;" d="M 32 16 C 32 24.835938 24.835938 32 16 32 C 7.164062 32 0 24.835938 0 16 C 0 7.164062 7.164062 0 16 0 C 24.835938 0 32 7.164062 32 16 Z M 32 16 "/>
<path style="fill-rule:nonzero;fill:rgb(100%,100%,100%);fill-opacity:1;stroke-width:17.6755;stroke-linecap:butt;stroke-linejoin:miter;stroke:rgb(0%,0%,0%);stroke-opacity:1;stroke-miterlimit:4;" d="M 113.179688 309.422119 C 115.055298 308.135986 116.82373 306.206787 117.734741 303.473755 C 118.699341 300.472778 118.109863 297.793335 117.681152 296.292847 C 117.627563 296.239258 117.627563 296.185669 117.627563 296.13208 L 118.002686 294.042114 C 119.020874 294.578003 120.14624 295.328247 121.485962 296.292847 C 121.807495 296.507202 122.236206 296.828735 122.718506 297.150269 C 123.307983 297.578979 123.95105 298.061279 124.379761 298.329224 C 125.130005 298.865112 126.148193 299.561768 127.27356 300.151245 C 156.533081 318.37146 180.755249 325.873901 199.993652 324.909302 C 219.875122 323.944702 233.808228 313.977173 240.989136 299.347412 C 247.955688 285.25354 248.170044 267.783569 243.293457 251.599731 C 238.41687 235.308716 228.074219 219.446411 212.747803 208.514282 C 186.810791 190.026123 163.124512 161.945557 151.120605 138.044922 C 145.011475 125.933838 142.599976 116.180664 143.243042 109.75 C 143.510986 106.802612 144.421997 104.980591 145.547363 103.855225 C 146.619141 102.67627 148.601929 101.390137 152.406738 100.800659 C 160.552246 99.460938 169.930298 96.51355 179.415527 93.566162 C 183.113159 92.440796 186.810791 91.261841 190.508423 90.190063 C 204.227173 86.170898 218.696167 82.7948 233.968994 82.848389 C 263.550049 82.901978 298.275635 95.763306 334.876831 149.191406 C 381.820679 217.838745 356.044434 294.578003 301.919678 334.876831 C 274.964478 354.972656 241.25708 365.636841 206.692261 361.564087 C 175.50354 357.920044 142.921509 342.218506 113.179688 309.422119 Z M 118.645752 291.684204 C 118.645752 291.684204 118.645752 291.684204 118.592163 291.737793 C 118.645752 291.684204 118.645752 291.684204 118.645752 291.684204 Z M 115.698364 293.023926 C 115.698364 293.023926 115.698364 293.023926 115.805542 293.023926 C 115.698364 293.023926 115.698364 293.023926 115.698364 293.023926 Z M 115.698364 293.023926 " transform="matrix(0.0728929,0,0,0.0728929,0,0)"/>
<path style=" stroke:none;fill-rule:nonzero;fill:rgb(0%,0%,0%);fill-opacity:1;" d="M 10.210938 7.601562 C 10.210938 7.601562 16.328125 5.972656 17.664062 5.972656 C 19.003906 5.972656 24.355469 8.570312 25.917969 13.320312 C 28.132812 20.050781 22.109375 24.464844 21.429688 24.03125 C 27.90625 18.675781 17.304688 8.777344 12.09375 9.519531 C 11.441406 9.613281 11.800781 10.171875 11.800781 10.171875 L 11.65625 11.617188 L 10.570312 9.808594 Z M 10.210938 7.601562 "/>
<path style=" stroke:none;fill-rule:nonzero;fill:rgb(0%,0%,0%);fill-opacity:1;" d="M 25.027344 11.296875 C 26.957031 14.695312 26.554688 12.75 26.128906 16.636719 C 26.921875 15.351562 28.160156 16.3125 28.675781 16.804688 C 28.765625 16.890625 28.917969 16.835938 28.914062 16.710938 C 28.894531 16.132812 28.726562 14.886719 27.773438 13.550781 C 26.464844 11.71875 25.027344 11.296875 25.027344 11.296875 Z M 25.027344 11.296875 "/>
<path style="fill:none;stroke-width:0.993005;stroke-linecap:butt;stroke-linejoin:miter;stroke:rgb(0%,0%,0%);stroke-opacity:1;stroke-miterlimit:4;" d="M 358.455933 228.234985 C 364.297119 174.914062 369.816772 201.601318 343.343872 154.979004 C 343.343872 154.979004 363.064575 160.766602 381.016846 185.89978 C 394.092529 204.227173 396.396851 221.322021 396.664795 229.253174 C 396.718384 230.968018 394.628418 231.718262 393.395874 230.539307 C 386.322144 223.787109 369.334473 210.604248 358.455933 228.234985 Z M 358.455933 228.234985 C 359.474121 225.716309 361.028198 221.804321 361.028198 221.804321 " transform="matrix(0.0728929,0,0,0.0728929,0,0)"/>
<path style=" stroke:none;fill-rule:nonzero;fill:rgb(0%,0%,0%);fill-opacity:1;" d="M 9.488281 16.117188 C 8.671875 17.496094 7 17.394531 7.03125 19.039062 C 8.523438 22.355469 8.535156 22.117188 8.535156 22.117188 C 11.300781 20.566406 10.164062 17.132812 9.753906 16.125 C 9.707031 16.011719 9.550781 16.011719 9.488281 16.117188 Z M 9.488281 16.117188 "/>
<path style=" stroke:none;fill-rule:nonzero;fill:rgb(0%,0%,0%);fill-opacity:1;" d="M 3.214844 19.167969 C 4.804688 19.375 5.753906 17.992188 7.03125 19.03125 C 8.726562 22.25 8.53125 22.113281 8.53125 22.113281 C 5.605469 23.335938 3.601562 20.328125 3.058594 19.382812 C 2.996094 19.273438 3.09375 19.152344 3.214844 19.167969 Z M 3.214844 19.167969 "/>
<path style=" stroke:none;fill-rule:nonzero;fill:rgb(0%,0%,0%);fill-opacity:1;" d="M 16.542969 17.121094 C 16.542969 17.121094 18.136719 18.75 17.304688 19.003906 C 16.265625 18.363281 14.40625 18.859375 13.492188 19.167969 C 13.269531 19.242188 13.050781 19.042969 13.128906 18.820312 C 13.441406 17.96875 14.207031 16.390625 15.675781 16.179688 C 16.542969 15.960938 16.542969 17.121094 16.542969 17.121094 Z M 16.542969 17.121094 "/>
<path style=" stroke:none;fill-rule:nonzero;fill:rgb(100%,100%,100%);fill-opacity:1;" d="M 17.519531 9.15625 C 17.339844 8.90625 16.976562 8.21875 18.101562 8.21875 C 19.222656 8.21875 20.9375 9.488281 21.285156 9.957031 C 21.175781 10.242188 20.453125 10.308594 20.089844 10.28125 C 19.730469 10.253906 19.113281 10.191406 18.644531 9.957031 C 18.171875 9.722656 17.703125 9.410156 17.519531 9.15625 Z M 17.519531 9.15625 "/>
</g>
</svg>

<svg xmlns="http://www.w3.org/2000/svg" width="32" height="32" viewBox="0 0 32 32"><path d="M32 16c0 8.836-7.164 16-16 16S0 24.836 0 16 7.164 0 16 0s16 7.164 16 16zm0 0" fill="#ffd15c"/><path d="M8.25 22.555a.849.849 0 00.332-.434.89.89 0 00-.004-.523c-.004-.004-.004-.008-.004-.012l.028-.152c.074.039.156.093.253.164.024.015.055.039.09.062.043.031.09.067.121.086.055.04.13.09.211.133 2.133 1.328 3.899 1.875 5.301 1.805 1.45-.07 2.465-.797 2.988-1.864.508-1.027.524-2.3.168-3.48a5.986 5.986 0 00-2.226-3.14c-1.89-1.348-3.617-3.395-4.492-5.138C10.57 9.18 10.395 8.47 10.44 8c.02-.215.086-.348.168-.43.078-.086.223-.18.5-.222.594-.098 1.278-.313 1.97-.528.269-.082.538-.168.808-.246 1-.293 2.054-.539 3.168-.535 2.156.004 4.687.941 7.355 4.836 3.422 5.004 1.543 10.598-2.402 13.535-1.965 1.465-4.422 2.242-6.942 1.945-2.273-.265-4.648-1.41-6.816-3.8zm.398-1.293l-.003.004.003-.004zm-.214.097h.007-.007zm0 0" fill="#fff" stroke-width="1.288" stroke="#000"/><path d="M10.21 7.602s6.118-1.63 7.454-1.63c1.34 0 6.691 2.598 8.254 7.348 2.215 6.73-3.809 11.145-4.488 10.711 6.476-5.355-4.125-15.254-9.336-14.511-.653.093-.293.652-.293.652l-.145 1.445L10.57 9.81zm0 0"/><path d="M25.027 11.297c1.93 3.398 1.528 1.453 1.102 5.34.793-1.285 2.031-.325 2.547.168.09.086.242.03.238-.094-.02-.578-.187-1.824-1.14-3.16-1.31-1.832-2.747-2.254-2.747-2.254zm0 0"/><path d="M26.129 16.637c.426-3.887.828-1.942-1.102-5.34 0 0 1.438.422 2.746 2.254.954 1.336 1.122 2.582 1.141 3.16.004.125-.148.18-.238.094-.516-.493-1.754-1.453-2.547-.168zm0 0l.187-.469" fill="none" stroke-width=".072" stroke="#000"/><path d="M9.488 16.117C8.672 17.497 7 17.395 7.031 19.04c1.492 3.316 1.504 3.078 1.504 3.078 2.766-1.55 1.63-4.984 1.219-5.992-.047-.113-.203-.113-.266-.008zm0 0"/><path d="M3.215 19.168c1.59.207 2.539-1.176 3.816-.137 1.696 3.219 1.5 3.082 1.5 3.082-2.926 1.223-4.93-1.785-5.472-2.73-.063-.11.035-.23.156-.215zm13.328-2.047s1.594 1.629.762 1.883c-1.04-.64-2.899-.145-3.813.164-.222.074-.441-.125-.363-.348.312-.851 1.078-2.43 2.547-2.64.867-.22.867.941.867.941zm0 0"/><path d="M17.52 9.156c-.18-.25-.543-.937.582-.937 1.12 0 2.835 1.27 3.183 1.738-.11.285-.832.352-1.195.324-.36-.027-.977-.09-1.445-.324-.473-.234-.942-.547-1.125-.8zm0 0" fill="#fff"/></svg>
